!!!COM: Palestrina, Giovanni Perluigi da
!!!OPR: Missa Sine nomine (1591)
!!!OMD: Credo
!!!OTL: First Section
**kern	**kern	**kern	**kern	**kern	**kern
*Ibass	*Itenor	*Itenor	*Icalto	*Icant	*Icant
!Bassus	!Tenor 2	!Tenor 1	!Altus	!Cantus 2	!Cantus 1
*clefF4	*clefGv2	*clefGv2	*clefG2	*clefG2	*clefG2
*k[b-]	*k[b-]	*k[b-]	*k[b-]	*k[b-]	*k[b-]
*G:dor	*G:dor	*G:dor	*G:dor	*G:dor	*G:dor
*M4/2	*M4/2	*M4/2	*M4/2	*M4/2	*M4/2
=1	=1	=1	=1	=1	=1
1D	1r	0r	0r	0r	0r
2D	1D	.	.	.	.
2D	.	.	.	.	.
=2	=2	=2	=2	=2	=2
2.F	2D	1A	0r	0r	0r
.	2D	.	.	.	.
4E	.	.	.	.	.
4D	[1F	1A	.	.	.
4C	.	.	.	.	.
[2D	.	.	.	.	.
=3	=3	=3	=3	=3	=3
2D]	2F]	1A	0r	0r	0r
4C	4E	.	.	.	.
4BB	4D	.	.	.	.
2C#	2E	2A	.	.	.
2D	2F	2A	.	.	.
=4	=4	=4	=4	=4	=4
1GG	1.G	1B-	1d	1r	0r
[1D	.	[1A	2d	1d	.
.	2F	.	2d	.	.
=5	=5	=5	=5	=5	=5
1D]	2r	1A]	2.f	2d	0a
.	2D	.	.	2d	.
.	.	.	4e	.	.
1r	2D	1r	4d	[1f	.
.	.	.	4c	.	.
.	2D	.	[2d	.	.
=6	=6	=6	=6	=6	=6
0r	1A	0r	2d]	2f]	1a
.	.	.	4c	4e	.
.	.	.	4B	4d	.
.	2A	.	2c#	2e	1a
.	2D	.	2d	2f	.
=7	=7	=7	=7	=7	=7
0r	1d	1r	1G	1g	1b-
.	1D	2r	1d	2.f	2a
.	.	[2d	.	.	2a
.	.	.	.	8e	.
.	.	.	.	8d	.
=8	=8	=8	=8	=8	=8
1r	2r	2d]	1A	1e	0a
.	1A	2c#	.	.	.
[1D	.	2d	1f	1d	.
.	2A	2d	.	.	.
=9	=9	=9	=9	=9	=9
2D]	2F	1A	2d	1r	0a
2C#	2E	.	2e	.	.
2D	1F	2.A	2d	2r	.
2D	.	.	[2d	[2a	.
.	.	4A	.	.	.
=10	=10	=10	=10	=10	=10
1AA	2.E	1A	4d]	2a]	0r
.	.	.	8c	.	.
.	.	.	8B	.	.
.	.	.	2c#	2a	.
.	4E	.	.	.	.
2BB-	2D	2r	2d	2f	.
2GG	[2G	2G	2d	2b-	.
=11	=11	=11	=11	=11	=11
1D	2G]	1A	0d	1a	1r
.	2F#	.	.	.	.
1GG	1G	2.B-	.	2g	2r
.	.	.	.	2g	[2g
.	.	4B-	.	.	.
=12	=12	=12	=12	=12	=12
0r	1D	2A	2r	1a	2g]
.	.	2A	1d	.	2f#
.	2.E-	1G	.	2r	2.g
.	.	.	2c	[2g	.
.	4E-	.	.	.	4a
=13	=13	=13	=13	=13	=13
1r	1D	2r	2.d	2g]	2b-
.	.	1d	.	2f#	2a
.	.	.	4c	.	.
[1G	1r	.	4B-	2.g	1b-
.	.	.	4A	.	.
.	.	2e-	[2B-	.	.
.	.	.	.	4a	.
=14	=14	=14	=14	=14	=14
2G]	0r	2.d	4B-]	2b-	2g
.	.	.	4G	.	.
2F#	.	.	1d	2a	2.a
.	.	4c	.	.	.
2G	.	2B-	.	2.b-	.
.	.	.	.	.	4g
2G	.	2B-	2d	.	[2g
.	.	.	.	4cc	.
=15	=15	=15	=15	=15	=15
2.D	1r	2.A	2.d	2dd	4g]
.	.	.	.	.	8f#
.	.	.	.	.	8e
.	.	.	.	2a	2f#
4D	.	4A	4d	.	.
2GG	2r	2G	2d	2b	2g
[2C	[2G	[2E	[2e	[2cc	[2g
=16	=16	=16	=16	=16	=16
2C]	2G]	2E]	2e]	2cc]	2g]
2C	2G	2C	2e	2cc	2g
2C	2E	2G	2e	2cc	2g
2C	2E	2G	2e	2cc	2g
=17	=17	=17	=17	=17	=17
2.GG	2.G	2.B-	2.d	2b-	2g
.	.	.	.	2g	2dd
4GG	4G	4B-	4d	.	.
[1D	1F	1A	2d	[1a	2dd
.	.	.	[2f	.	4d
.	.	.	.	.	4e
=18	=18	=18	=18	=18	=18
1D]	4D	1d	2f]	1a]	4f
.	4E	.	.	.	4g
.	4F	.	2f	.	2.a
.	4G	.	.	.	.
2.AA	1A	[1c	[1e	1cc	.
.	.	.	.	.	4b
.	.	.	.	.	[2cc
4BB	.	.	.	.	.
=19	=19	=19	=19	=19	=19
1C	1E	1c]	1e]	1g	2cc]
.	.	.	.	.	2g
1GG	1G	[1B-	[1d	2.dd	2.b-
.	.	.	.	4cc	4cc
=20	=20	=20	=20	=20	=20
1BB-	1F	1B-]	1d]	1b-	1dd
[1FF	2r	1c	1f	2a	2cc
.	[2F	.	.	[2a	[2cc
=21	=21	=21	=21	=21	=21
1FF]	4F]	0r	2f	4a]	4cc]
.	4F	.	.	4a	4cc
.	2F	.	2f	2a	2cc
1r	2B-	.	1f	2b-	2dd
.	2A	.	.	2cc	2cc
=22	=22	=22	=22	=22	=22
0r	2.B-	0r	1f	2.dd	2.b-
.	4F	.	.	4cc	4a
.	2G	.	1r	2b-	2g
.	2d	.	.	2a	2f#
=23	=23	=23	=23	=23	=23
2r	1G	2r	2r	1g	2g
1G	.	1B-	1d	.	1g
.	1r	.	.	1r	.
2G	.	2G	2d	.	2b-
=24	=24	=24	=24	=24	=24
2F#	0r	2A	2d	0r	2a
2G	.	2B-	2d	.	2g
1C	.	1c	1e-	.	1g
=25	=25	=25	=25	=25	=25
0D	2r	1A	1d	2r	2f#
.	1d	.	.	1f	1a
.	.	1r	2.f	.	.
.	2d	.	.	2d	2a
.	.	.	4f	.	.
=26	=26	=26	=26	=26	=26
0r	2c#	1r	2e	2e	2a
.	2d	.	2d	2f	2a
.	1G	2r	1d	1g	1b-
.	.	[2d	.	.	.
=27	=27	=27	=27	=27	=27
0r	4D	2d]	0r	1f	1.a
.	4E	.	.	.	.
.	4F	2d	.	.	.
.	4G	.	.	.	.
.	2A	2c#	.	2e	.
.	[2B-	2d	.	2d	2f
=28	=28	=28	=28	=28	=28
0r	4B-]	1G	0r	1d	2.g
.	4c	.	.	.	.
.	1d	.	.	.	.
.	.	.	.	.	4f
.	.	2A	.	1a	1e
.	2c#	2A	.	.	.
=29	=29	=29	=29	=29	=29
1BB-	2d	2D	1f	0r	1d
.	2B-	2d	.	.	.
2BB-	2B-	2d	2f	.	1r
2BB-	2B-	2d	2f	.	.
=30	=30	=30	=30	=30	=30
1F	1A	1c	1f	1r	1r
1BB-	1B-	1d	2f	2r	2r
.	.	.	2B-	2b-	2dd
=31	=31	=31	=31	=31	=31
0r	0r	0r	2.f	2.a	2.cc
.	.	.	4B-	4b-	4dd
.	.	.	2f	2a	2cc
.	.	.	2g	2g	2b-
=32	=32	=32	=32	=32	=32
2r	2r	2r	2d	4f	0a
.	.	.	.	4e	.
1D	1d	1A	1f	4d	.
.	.	.	.	4e	.
.	.	.	.	4f	.
.	.	.	.	4g	.
2D	2d	2A	2f	2a	.
=33	=33	=33	=33	=33	=33
1BB-	1d	1B-	1f	1r	0r
2F	2c	2A	2f	2r	.
2BB-	2d	2B-	2f	2f	.
=34	=34	=34	=34	=34	=34
2F	2c	2A	2f	2a	2r
2G	2B-	2G	2d	2b-	2g
1D	1A	1F#	1d	1dd	2a
.	.	.	.	.	2a
=35	=35	=35	=35	=35	=35
1GG	0G	1G	2d	1dd	1b-
.	.	.	2.G	.	.
2r	.	[1d	.	[1b-	1g
.	.	.	4A	.	.
[2G	.	.	4B-	.	.
.	.	.	4c	.	.
=36	=36	=36	=36	=36	=36
2G]	0r	2d]	2.d	2b-]	0r
2G	.	2B-	.	2b-	.
.	.	.	4d	.	.
2G	.	2G	2d	2b-	.
2F#	.	2G	2d	2a	.
=37	=37	=37	=37	=37	=37
1G	1r	1B	1d	1g	1r
1C	2r	2c	2e	2g	2r
.	[2c	[2C	[2e	[2g	[2cc
=38	=38	=38	=38	=38	=38
0r	2c]	2C]	2e]	2g]	2cc]
.	2c	2C	2e	2g	2cc
.	2c	2C	2e	2g	2cc
.	2B	2G	2d	2g	2dd
=39	=39	=39	=39	=39	=39
0r	1.c	1C	1e	1g	1.cc
.	.	1F	1f	1a	.
.	2A	.	.	.	2cc
=40	=40	=40	=40	=40	=40
1r	2B-	1G	1d	1g	1b-
.	2G	.	.	.	.
2r	2r	1D	2d	2f	2a
[2D	[2A	.	[2d	[2a	[2f
=41	=41	=41	=41	=41	=41
2D]	2A]	0r	2d]	2a]	2f]
2D	2A	.	2d	2f	2a
2D	2A	.	2f	2d	2a
2C#	2A	.	2e	2e	2a
=42	=42	=42	=42	=42	=42
1D	1A	0r	1d	1f#	1a
2GG	2G	.	2d	2g	2b
2GG	2G	.	2d	2g	2b
=43	=43	=43	=43	=43	=43
1C	1G	2r	1e	1g	0cc
.	.	2G	.	.	.
2r	1r	2A	1e	1r	.
2C	.	2c	.	.	.
=44	=44	=44	=44	=44	=44
2D	1r	4B-	2f	2r	0r
.	.	8A	.	.	.
.	.	8G	.	.	.
2F	.	2A	2f	2c	.
2BB-	2r	2.B-	1f	2d	.
2D	2F	.	.	2f	.
.	.	8A	.	.	.
.	.	8B-	.	.	.
=45	=45	=45	=45	=45	=45
2C	2G	2c	2r	2e	0r
4BB-	2B-	2F	1f	4d	.
4C	.	.	.	4e	.
4D	2.A	1F	.	4f	.
4E	.	.	.	4g	.
4F	.	.	2f	[2a	.
4G	4B-	.	.	.	.
=46	=46	=46	=46	=46	=46
2A	2c	0r	4f	4a]	2r
.	.	.	4e	4g	.
2B-	1d	.	4d	1f	2f
.	.	.	4c	.	.
1G	.	.	1B-	.	2g
.	2B-	.	.	2e	2b-
=47	=47	=47	=47	=47	=47
1F	1c	1r	2r	0f	1.a
.	.	.	2c	.	.
1r	1r	2r	2d	.	.
.	.	2F	2f	.	2a
=48	=48	=48	=48	=48	=48
0r	0r	2G	2e-	2r	2g
.	.	2B-	2d	2f	4f
.	.	.	.	.	4g
.	.	1A	1c	2f	4a
.	.	.	.	.	4b-
.	.	.	.	2e	[2cc
=49	=49	=49	=49	=49	=49
0r	0r	2G	2.d	2g	4cc]
.	.	.	.	.	4b-
.	.	2G	.	4d	1b-
.	.	.	8c	4d	.
.	.	.	8B-	.	.
.	.	1F	1c	1f	.
.	.	.	.	.	2a
=50	=50	=50	=50	=50	=50
0BB-	2r	1F	0d	1f	1b-
.	2D	.	.	.	.
.	4F	2r	.	1r	1dd
.	4E	.	.	.	.
.	4F	2D	.	.	.
.	4G	.	.	.	.
=51	=51	=51	=51	=51	=51
1AA	1A	4E	2r	1r	1cc
.	.	4D	.	.	.
.	.	4E	2A	.	.
.	.	4F#	.	.	.
1GG	2D	1G	4d	1dd	1b-
.	.	.	4c	.	.
.	2D	.	4d	.	.
.	.	.	4e	.	.
=52	=52	=52	=52	=52	=52
1AA	1A	1C	2f	1cc	2.a
.	.	.	2e	.	.
.	.	.	.	.	4g
2.BB-	1D	2r	1d	1b-	4f
.	.	.	.	.	4e
.	.	2F	.	.	[2d
4C	.	.	.	.	.
=53	=53	=53	=53	=53	=53
2.D	2r	2.F	2.f	2.a	2d]
.	1D	.	.	.	2.dd
4E	.	4G	4e	4g	.
2F	.	2A	2.d	4f	.
.	.	.	.	4e	4cc
2G	[2d	2B-	.	[2d	[2b-
.	.	.	4c	.	.
=54	=54	=54	=54	=54	=54
1GG	4d]	1d	4B-	2d]	4b-]
.	4c	.	4c	.	4a
.	2B-	.	4d	2.dd	1g
.	.	.	4e-	.	.
1D	1A	1D	1d	.	.
.	.	.	.	4cc	.
.	.	.	.	2a	2f#
=55	=55	=55	=55	=55	=55
1GG	1G	1D	1d	1b	1g
1r	1r	1r	1r	1r	1r
=56	=56	=56	=56	=56	=56
0r	1F	0r	1f	1cc	1a
.	2F	.	2f	2cc	2a
.	2F	.	2f	2cc	2a
=57	=57	=57	=57	=57	=57
0r	1G	0r	1d	1b-	1g
.	1A	.	1c#	1a	1e
=58	=58	=58	=58	=58	=58
2r	1D	2r	2d	2a	1f
2BB-	.	2d	2d	2b-	.
2BB-	2r	2d	2f	2b-	1r
2BB-	2D	2d	2f	2b-	.
=59	=59	=59	=59	=59	=59
1C	2E	1c	1e	1g	0r
.	2G	.	.	.	.
1D	2G	1A	1d	1dd	.
.	2F#	.	.	.	.
=60	=60	=60	=60	=60	=60
0GG	0G	2.B-	2d	2dd	2r
.	.	.	1B-	1b-	1dd
.	.	4c	.	.	.
.	.	1d	.	.	.
.	.	.	2B-	2b-	2dd
=61	=61	=61	=61	=61	=61
0r	0r	0r	2.f	2.a	2.cc
.	.	.	4B-	4b-	4dd
.	.	.	2f	2a	2cc
.	.	.	2g	2g	2b-
=62	=62	=62	=62	=62	=62
0D	0A	1r	1d	1f#	1a
.	.	1d	1f#	1dd	1a
=63	=63	=63	=63	=63	=63
1GG	1G	1d	1g	1dd	1b
1C	1G	1c	1e-	1g	1cc
=64	=64	=64	=64	=64	=64
0GG	2.G	2B-	0d	2.b-	2.dd
.	.	2.G	.	.	.
.	4A	.	.	4cc	4cc
.	4B-	.	.	4dd	4b-
.	4c	4A	.	4cc	4a
.	2d	[2B-	.	4b-	4g
.	.	.	.	4a	4f#
=65	=65	=65	=65	=65	=65
0GG	1G	4B-]	0d	1b-	1g
.	.	4A	.	.	.
.	.	4G	.	.	.
.	.	4F#	.	.	.
.	1D	1G	.	1b-	1g
=66	=66	=66	=66	=66	=66
[0D	[0D	[0A	[0d	[0a	[0f#
=67	=67	=67	=67	=67	=67
0D]	0D]	0A]	0d]	0a]	0f#]
*-	*-	*-	*-	*-	*-
!!!CDT: 1525/^1526/-1594/2/2
!!!OCY: Italia
!!!AGN: Mass (Parody)
!!!AST: renaissance, vocal
!!!ASW: Motet (unidentified)
!!!PWK: Masses, Book 1
!!!RNB: Cadence finals: D
!!!YOR: Le Opere Complete, v. 1, p. 182
!!!YOO: Rome, Italy: Fratelli Scalera
!!!END: 1992//
!!!EED: John Miller
!!!YEC: Copyright 2000, John Miller
!!!YEN: United States of America
!!!YEM: Rights to all derivative electronic formats reserved.
!!!YEM: Refer to licensing agreement for further details.
!!!YEM: This file must be accompanied by the licensing agreement.
!!!YEM: A copy of the licensing agreement may be found at http://www.music-cog.ohio-state.edu/HumdrumDatabases/Palestrina/license.txt
!!!EMD: converted to Humdrum by Bret Aarden
